X: 16722
T: Happydaze
R: jig
M: 6/8
K: Aminor
(3Bcd|:e2A2G2 A2A2A2|A2G2E2 G2G2G2|A2G2E2 G2G2G2|A2G2E2 D4 (3Bcd|
e2A2G2 A2A2A2|A2G2E2 G2G2G2|A4 (3Bcd e2c2d2|d2c2 A2A4d2:|
e2g2a2 a2d2e2|g2a2e2 d2c2d2|e2g2a2 a2d2e2|g2A2B2 ~A2A2A2|
d2^c2d2 ~e2e2e2|g4 g2 a2g2e2|A4 (3Bcd e2c2d2|d2c2 A2A4d2:|

